X: 1
T: Portsmouth Airs
C: from Jimmy Wheeler
R: reel
Z: 2020 John Chambers <jc:trillian.mit.edu> (and added chords)
S: https://www.facebook.com/groups/Fiddletuneoftheday/ 2020-8-9
S: https://www.facebook.com/groups/Fiddletuneoftheday/photos/
S: From recordings made at Jimmy’s home in Portsmouth, Ohio in the mid 1980s when Jimmy was in his late 60s.
N: Visit www.fieldrecorder.org for more info.
M: C|
L: 1/8
K: G
[| "G"g2ag "D"f2gf | "C"e2d2 "G"dcBc | "D7"d2cd     cBA2 |  c2Bc    "G"BAG2 |\
   "G"g2ag "D"f2gf | "C"e2d2 "G"dcBd | "Am"c2A2 "D7"d2F2 | "G"G4       G4   ||
|| "G"g2ag "D"f2gf | "C"e2d2 "G"dcBc |  "D"d2cd     cBA2 | "G"b2ab "D7"agf2 |\
   "G"g2ag "D"f2gf | "C"e2d2 "G"dcBd | "Am"c2A2 "D7"d2F2 | "G"G4       G2D2 |]
[| "G"B4       BABc |    e2 d4  cB |  "D"A2 d4       AB | "(C)"c2Bc "G"BAG2 |\
   "G"Bd2B "D7"d2ef | "G"g2d2 dcBd | "Am"c2A2  "D7"d2F2 |   "G"G4      G4   ||
|| "G"Bd2B "D7"d2ef | "G"g2d2 dcB2 |  "D"Ad3       d2AB | "(C)"c2Bc "G"BAG2 |\
   "G"Bd2B "D7"d2ef | "G"g2d2 dcBd | "Am"c2d2  "D7"e2f2 |   "G"g4      g4   |]
_
